X: 21868
T: Kiss Me By The Barn
R: slip jig
M: 9/8
K: Dmajor
E3 F G2 A2 B|A2 G F E2 DB,D|E3 E2 D E F2|E3 ED B,2 DE|
E3 F G2 A2 B|c d2 A G2 EB,D|G3 F2 D B,2 E|E3 ED B,2 DE|
B2 c d2 e f2 f|d2 e B2 d e3|f2 e d2 E d2 e|e2 f d2 F B3|
A2 F E2 A B3|BAF E2 D E2 F|f2 e f a2 b3|ede c2 F B3||

